X:1
T:Emmanuel - Tenor
T:Emmanuel - Tenor
L:1/8
Q:1/4=66
M:4/4
K:Bb
V:1 bass nm="Piano" snm="Pno."
V:1
 z4 B,2 B,2 |S B,4- B,D C>A, | B,4 z2 C>C | (C2 B,2- B,)B,CD | E6 z2 | z D(CB,) C2 C2 | %6
w: Call His|name * Em- man- u-|el God will|Come * * with us to|dwell|we * know all is|
w: ||* * (has)||||
 D4 z B,A,G, | F,4 z B, A,>G,!dacoda! | F,8 | z8 | z8 | z8 | z8 | z8 | z2 (F,2 _G,4 | C4 =B,4) | %16
w: well for He will|Come Em- man- u-|el||||||Ooo _|_ _|
w: * (for Je- sus|is) * * *|||||||||
 z2 (C=B, D2 C2 | (B,4) A,) z A,A,!D.S.! |O F,4 z2 z G,/A,/ | DD/D/- DD D D2 D/D/ | %20
w: Ooo _ _ _|_ _ Call His|el. When you|fell that you're * for sa- ken and you|
w: ||||
 B,B,/B,/- B,B, B,2 z2 | z8 | z8 | z2 (D2- D4- | D4 C2) z G,/G,/ | G,G,/G,/- G,G, G,A,/B,/- B,C | %26
w: feel that you're * a- lone|||Ooo _|_ _ You can|call his name * and know that He * is|
w: ||||||
 C4 z C-CB, | _D3 z D2 D2 ||[K:Db] (E2 D2) z D C>C | D4- D z E>E | (E2 D2- D)A,A,A, | %31
w: there He _ is|there Call His|name * Em- man- u-|el * God has|come * * for us to|
w: |||||
 B,4 z A, F,>G, | (A,B,CD) E2 E2 | B,4 z B,DD | D6 D2 | D>D D2 z DDD | C4 z CB,A, | =A,8 | %38
w: dwell for now we|know * * * all is|well For Je- sus|is Em-|man- u- el with us to|dwell now all is|well|
w: |||||||
 z2 =A,2 A,2 A,2 | (D4 C4) | z DDD D4- | D8 |] %42
w: Just call His|name *|Em- man- u- el||
w: ||||

